!!!OTL: WER IST DER RITTER HOCHGEEHRT
!!!ARE: Europa, Mitteleuropa, Deutschland
!!!SCT: B0082
!!!YEM: Copyright 1995, estate of Helmut Schaffrath.
**kern
*ICvox
*Ivox
*M4/4
*k[]
*C:
{8G
8F
=1
4E
4G
4c
4d
=2
4e
4d
4c}
{8G
8F
=3
4.E
8G
4.c
8c
=4
2.B}
{8G
8F
=5
4E
4G
4c
4d
=6
4e
4d
4c}
{8G
8F
=7
4.E
8G
4.c
8c
=8
2.B}
{8B
8A
=9
4.G
8G
4.G
8G
=10
8B
8A
8G
8A
4B}
{8B
8c
=11
4d
8A
8B
4c
8G
8A
=12
2.B}
{8A
8G
=13
4G
4F#
4G
4c
=14
4d
4B
4G}
{8G
8F
=15
4E
4G
4c
8B
8c
=16
2.d}
{8G
8F
=17
4E
4G
4c
4d
=18
4e
4d
4c}
{8G
8F
=19
4E
4G
4c
4d
=20
4e
4d
4c}
{4G
=21
2e
4c
4c
=22
2c
4B}
{4A
=23
4G
4e
4d
4B
=24
2c
4r}
{8G
8F
=25
4E
4G
4c
4d
=26
4e
4d
4c}
{8G
8F
=27
4E
4G
4c
4d
=28
4e
4d
4c}
{4G
=29
2e
4c
4c
=30
2c
4B}
{4A
=31
4G
4e
4d
4B
=32
2c
4r}
==
!!!AGN: Helden -, Ehren -, Gedaechtnis -, Kriegs - Lied
!!!ONB: ESAC (Essen Associative Code) Database: BOEHME
!!!AMT: simple quadruple
!!!AIN: vox
!!!EED: Helmut Schaffrath
!!!EEV: 1.0
*-
